include/LD/assets/icons/standard/sossession.svg

<?xml version="1.0"?><svg xmlns="http://www.w3.org/2000/svg" width="100" height="100" viewBox="0 0 100 100"><path fill="#fff" d="m49.6 18c-17.7 0.2-31.8 14.8-31.6 32.4 0.2 17.7 14.8 31.8 32.4 31.6 17.7-0.2 31.8-14.8 31.6-32.4-0.2-17.7-14.8-31.8-32.4-31.6z m0 4.2c4.8-0.1 9.3 1.1 13.2 3.1l-4.3 7.2c-2.6-1.3-5.5-2-8.5-2s-6 0.7-8.5 2l-4.3-7.2c3.7-1.9 7.9-3.1 12.4-3.1z m-17.1 36.3l-7.2 4.3c-1.9-3.7-3.1-8-3.1-12.5-0.1-4.8 1.1-9.3 3.1-13.2l7.2 4.3c-1.3 2.6-2 5.5-2 8.5s0.7 6.1 2 8.6z m17.9 19.3c-4.8 0.1-9.3-1.1-13.2-3.1l4.3-7.2c2.6 1.3 5.5 2 8.5 2s6-0.7 8.5-2l4.3 7.2c-3.7 1.9-7.9 3.1-12.4 3.1z m-0.4-12.5c-8.5 0-15.3-6.9-15.3-15.3 0-8.5 6.9-15.3 15.3-15.3 8.5 0 15.3 6.9 15.3 15.3 0 8.5-6.8 15.3-15.3 15.3z m17.5-6.8c1.3-2.6 2-5.5 2-8.5s-0.7-6-2-8.5l7.2-4.3c1.9 3.7 3.1 8 3.1 12.5 0.1 4.8-1.1 9.3-3.1 13.2l-7.2-4.4z"></path></svg>

<svg xmlns="http://www.w3.org/2000/svg" x="0px" y="0px"
	 width="100px" height="100px" viewBox="0 0 100 100" enable-background="new 0 0 100 100" xml:space="preserve">
	<path fill="#FFFFFF" d="M49.6,18C31.9,18.2,17.8,32.8,18,50.4
		C18.2,68.1,32.8,82.2,50.4,82C68.1,81.8,82.2,67.2,82,49.6C81.8,31.9,67.2,17.8,49.6,18L49.6,18z M49.6,22.2
		c4.8-0.1,9.3,1.1,13.2,3.1l-4.3,7.2c-2.6-1.3-5.5-2-8.5-2s-6,0.7-8.5,2l-4.3-7.2C40.9,23.4,45.1,22.2,49.6,22.2L49.6,22.2z
		 M32.5,58.5l-7.2,4.3c-1.9-3.7-3.1-8-3.1-12.5c-0.1-4.8,1.1-9.3,3.1-13.2l7.2,4.3c-1.3,2.6-2,5.5-2,8.5S31.2,56,32.5,58.5
		L32.5,58.5z M50.4,77.8c-4.8,0.1-9.3-1.1-13.2-3.1l4.3-7.2c2.6,1.3,5.5,2,8.5,2s6-0.7,8.5-2l4.3,7.2
		C59.1,76.6,54.9,77.8,50.4,77.8L50.4,77.8z M50,65.3c-8.5,0-15.3-6.9-15.3-15.3c0-8.5,6.9-15.3,15.3-15.3
		c8.5,0,15.3,6.9,15.3,15.3C65.3,58.5,58.5,65.3,50,65.3L50,65.3z M67.5,58.5c1.3-2.6,2-5.5,2-8.5s-0.7-6-2-8.5l7.2-4.3
		c1.9,3.7,3.1,8,3.1,12.5c0.1,4.8-1.1,9.3-3.1,13.2L67.5,58.5L67.5,58.5z"/>
</svg>
